svg/emoji_u1f502.svg

<svg width="128" height="128" viewBox="0 0 128 128" fill="none" xmlns="http://www.w3.org/2000/svg">
<path d="M116 4H12C7.58 4 4 7.58 4 12V116C4 120.42 7.58 124 12 124H116C120.42 124 124 120.42 124 116V12C124 7.58 120.42 4 116 4Z" fill="#F77E00" style="fill:#F77E00;fill:color(display-p3 0.9686 0.4941 0.0000);fill-opacity:1;"/>
<path d="M109.7 4H11.5C7.37002 4.03 4.03002 7.37 4.00002 11.5V109.4C3.99002 113.54 7.34002 116.89 11.48 116.9C11.49 116.9 11.49 116.9 11.5 116.9H109.6C113.74 116.91 117.09 113.56 117.1 109.42C117.1 109.41 117.1 109.41 117.1 109.4V11.5C117.19 7.45 113.97 4.09 109.92 4C109.85 4 109.77 4 109.7 4Z" fill="#FF9800" style="fill:#FF9800;fill:color(display-p3 1.0000 0.5961 0.0000);fill-opacity:1;"/>
<path d="M116 4H12C7.58 4 4 7.58 4 12V116C4 120.42 7.58 124 12 124H116C120.42 124 124 120.42 124 116V12C124 7.58 120.42 4 116 4Z" fill="#427687" style="fill:#427687;fill:color(display-p3 0.2588 0.4627 0.5294);fill-opacity:1;"/>
<path d="M109.7 4H11.5C7.37002 4.03 4.03002 7.37 4.00002 11.5V109.4C3.99002 113.54 7.34002 116.89 11.48 116.9C11.49 116.9 11.49 116.9 11.5 116.9H109.6C113.74 116.91 117.09 113.56 117.1 109.42C117.1 109.41 117.1 109.41 117.1 109.4V11.5C117.19 7.45 113.97 4.09 109.92 4C109.85 4 109.77 4 109.7 4Z" fill="#8CAFBF" style="fill:#8CAFBF;fill:color(display-p3 0.5490 0.6863 0.7490);fill-opacity:1;"/>
<path opacity="0.75" d="M39.6996 12.8999C39.6996 10.5999 38.0996 9.89988 28.8996 10.1999C21.1996 10.4999 17.3996 11.3999 15.0996 14.1999C12.7996 16.9999 12.1996 22.6999 12.0996 29.4999C12.0996 34.2999 12.0996 38.7999 14.5996 38.7999C17.9996 38.7999 17.9996 30.8999 20.7996 26.4999C26.1996 17.7999 39.6996 15.8999 39.6996 12.8999Z" fill="#A0C8D6" style="fill:#A0C8D6;fill:color(display-p3 0.6275 0.7843 0.8392);fill-opacity:1;"/>
<path d="M108.8 54.7L93.9998 68C93.5998 78.5 86.7998 80 81.9998 80H68.7998C70.3998 85.2099 70.3998 90.79 68.7998 96H81.9998C97.4998 96 110 81.7 110 64C110.01 60.86 109.6 57.73 108.8 54.7Z" fill="#FAFAFA" style="fill:#FAFAFA;fill:color(display-p3 0.9804 0.9804 0.9804);fill-opacity:1;"/>
<path d="M108.6 36.9999L84.6002 12.9999C82.9202 11.5599 80.4002 11.7599 78.9602 13.4399C78.3502 14.1499 78.0102 15.0599 78.0002 15.9999V29.9999C78.0002 31.0999 77.1002 31.9999 76.0002 31.9999H42.0002C26.5002 31.9999 14.0002 46.2999 14.0002 63.9999C13.9902 67.1399 14.4002 70.2699 15.2002 73.2999L15.3002 73.1999C18.3302 67.1799 23.5002 62.4999 29.8002 60.0999L30.0002 59.9999C30.5002 49.4999 37.2002 47.9999 42.0002 47.9999H76.0002C77.1002 47.9999 78.0002 48.8999 78.0002 49.9999V63.9999C78.0202 66.2099 79.8302 67.9799 82.0402 67.9599C82.9802 67.9499 83.8902 67.6099 84.6002 66.9999L108.6 42.9999C110.26 41.6499 110.51 39.2099 109.16 37.5599C108.99 37.3499 108.8 37.1699 108.6 36.9999Z" fill="#FAFAFA" style="fill:#FAFAFA;fill:color(display-p3 0.9804 0.9804 0.9804);fill-opacity:1;"/>
<path d="M40.6996 63.3999C27.6696 63.3999 17.0996 73.9699 17.0996 86.9999C17.0996 100.03 27.6696 110.6 40.6996 110.6C53.7296 110.6 64.2996 100.03 64.2996 86.9999C64.2796 73.9799 53.7196 63.4199 40.6996 63.3999ZM45.9996 105.6C45.9996 106.15 45.5496 106.6 44.9996 106.6H38.2996C37.7496 106.6 37.2996 106.15 37.2996 105.6V80.4999C37.2696 79.9499 36.7996 79.5299 36.2496 79.5499C36.1696 79.5499 36.0796 79.5699 35.9996 79.5999L30.0996 81.2999C29.5696 81.4699 29.0096 81.1699 28.8496 80.6499C28.8196 80.5699 28.8096 80.4899 28.7996 80.3999V75.8999C28.8196 75.4799 29.0996 75.1199 29.4996 74.9999L44.5996 69.9999C45.1296 69.8299 45.6896 70.1299 45.8496 70.6499C45.8796 70.7299 45.8896 70.8099 45.8996 70.8999L45.9996 105.6Z" fill="#FAFAFA" style="fill:#FAFAFA;fill:color(display-p3 0.9804 0.9804 0.9804);fill-opacity:1;"/>
</svg>

<?xml version="1.0" encoding="utf-8"?>
<!-- Generator: Adobe Illustrator 25.2.3, SVG Export Plug-In . SVG Version: 6.00 Build 0)  -->
<svg version="1.1" id="Layer_2" xmlns="http://www.w3.org/2000/svg" xmlns:xlink="http://www.w3.org/1999/xlink" x="0px" y="0px"
	 viewBox="0 0 128 128" style="enable-background:new 0 0 128 128;" xml:space="preserve">
<g>
	<path style="fill:#F77E00;" d="M116,4H12c-4.42,0-8,3.58-8,8v104c0,4.42,3.58,8,8,8h104c4.42,0,8-3.58,8-8V12
		C124,7.58,120.42,4,116,4z"/>
	<path style="fill:#FF9800;" d="M109.7,4H11.5C7.37,4.03,4.03,7.37,4,11.5v97.9c-0.01,4.14,3.34,7.49,7.48,7.5c0.01,0,0.01,0,0.02,0
		h98.1c4.14,0.01,7.49-3.34,7.5-7.48c0-0.01,0-0.01,0-0.02V11.5c0.09-4.05-3.13-7.41-7.18-7.5C109.85,4,109.77,4,109.7,4z"/>
	<path style="opacity:0.75;fill:#FFBD52;enable-background:new    ;" d="M39.7,12.9c0-2.3-1.6-3-10.8-2.7c-7.7,0.3-11.5,1.2-13.8,4
		s-2.9,8.5-3,15.3c0,4.8,0,9.3,2.5,9.3c3.4,0,3.4-7.9,6.2-12.3C26.2,17.8,39.7,15.9,39.7,12.9z"/>
	<path style="fill:#FAFAFA;" d="M108.8,54.7L108.8,54.7L94,68c-0.4,10.5-7.2,12-12,12H68.8c1.6,5.21,1.6,10.79,0,16H82
		c15.5,0,28-14.3,28-32C110.01,60.86,109.6,57.73,108.8,54.7z"/>
	<path style="fill:#FAFAFA;" d="M108.6,37l-24-24c-1.68-1.44-4.2-1.24-5.64,0.44C78.35,14.15,78.01,15.06,78,16v14c0,1.1-0.9,2-2,2
		H42c-15.5,0-28,14.3-28,32c-0.01,3.14,0.4,6.27,1.2,9.3l0,0l0.1-0.1c3.03-6.02,8.2-10.7,14.5-13.1L30,60c0.5-10.5,7.2-12,12-12h34
		c1.1,0,2,0.9,2,2v14c0.02,2.21,1.83,3.98,4.04,3.96c0.94-0.01,1.85-0.35,2.56-0.96l24-24c1.66-1.35,1.91-3.79,0.56-5.44
		C108.99,37.35,108.8,37.17,108.6,37z"/>
	<path style="fill:#FAFAFA;" d="M40.7,63.4c-13.03,0-23.6,10.57-23.6,23.6s10.57,23.6,23.6,23.6S64.3,100.03,64.3,87l0,0
		C64.28,73.98,53.72,63.42,40.7,63.4z M46,105.6c0,0.55-0.45,1-1,1h-6.7c-0.55,0-1-0.45-1-1V80.5c-0.03-0.55-0.5-0.97-1.05-0.95
		c-0.08,0-0.17,0.02-0.25,0.05l-5.9,1.7c-0.53,0.17-1.09-0.13-1.25-0.65c-0.03-0.08-0.04-0.16-0.05-0.25v-4.5
		c0.02-0.42,0.3-0.78,0.7-0.9l15.1-5c0.53-0.17,1.09,0.13,1.25,0.65c0.03,0.08,0.04,0.16,0.05,0.25L46,105.6z"/>
</g>
</svg>
